X: 10743
Q: "Slow."
U: p=!crescendo(!
U: P=!crescendo)!
U: Q=!diminuendo(!
U: q=!diminuendo)!
M: 6/8
L: 1/8
K: Em
!p!E>FA pBAPd | AQDG F>qED |\
!p!E>F!p!A BAd | BQAF qE2B,B, |\
!f!E>FpA BPAd | AQDG F>qED |\
E>FA !f!BAd | !p!BAF E3 |]
!pp!eB(e/f/) g>fe | dAd F>ED/D/ |\
!f!eB(e/f/) g>fe | Be^d e2B |\
eBpe/f/ g>Pfe | dAQd F>>qED |\
E>pFA BPAd | QB>AqF E3 |]


